X:163
T:Hornpipe TS.163
M:C|
L:1/8
Q:1/2=90
S:Thomas Sands’ MS,1810,Lincolnshire
R:.hornpipe
O:England;Lincolnshire
Z:vmp.Ruairidh Greig, 2011
K:D
“q. in ms”A2|FDFA dfed|cgec AGFE|FAdf gfed|c2A2A2 AG|
FDFA dfed| cgec AGFE|FAdA BGEC|D2D2D2:|
|:de|fedf afdf|edce aece|dcdA Bged|c2A2A2dc|
BdAd GdFd|BdAd GdFd|BdBG FAEA|F2D2D2:|]

